svgs/regular/tower-observation.svg

<svg xmlns="http://www.w3.org/2000/svg" viewBox="0 0 512 512"><!--! Font Awesome Pro 6.1.1 by @fontawesome - https://fontawesome.com License - https://fontawesome.com/license (Commercial License) Copyright 2022 Fonticons, Inc. --><path d="M245.7 2.331C252.2-.7771 259.8-.7771 266.3 2.331L434.3 82.33C446.3 88.03 451.4 102.4 445.7 114.3C440.3 125.5 427.4 130.7 416 126.6V200C416 227.2 396.6 249.9 370.8 254.1L405.7 464H488C501.3 464 512 474.7 512 488C512 501.3 501.3 512 488 512H24C10.75 512 0 501.3 0 488C0 474.7 10.75 464 24 464H106.3L141.2 254.1C115.4 249.9 96 227.2 96 200V126.6C84.56 130.7 71.67 125.5 66.33 114.3C60.63 102.4 65.71 88.03 77.68 82.33L245.7 2.331zM144 103.9V128H368V103.9L256 50.58L144 103.9zM144 176V200C144 204.4 147.6 208 152 208H360C364.4 208 368 204.4 368 200V176H144zM330.8 464L256 400.7L181.2 464H330.8zM185.9 278.5L256 337.8L326.1 278.5L322.3 256H189.7L185.9 278.5zM176.7 333.6L162.9 416.6L218.8 369.2L176.7 333.6zM293.2 369.2L349.1 416.6L335.3 333.6L293.2 369.2z"/></svg>

<svg xmlns="http://www.w3.org/2000/svg" viewBox="0 0 512 512"><!--! Font Awesome Pro 6.4.2 by @fontawesome - https://fontawesome.com License - https://fontawesome.com/license (Commercial License) Copyright 2023 Fonticons, Inc. --><path d="M245.7 2.3c6.5-3.1 14.1-3.1 20.6 0l168 80c12 5.7 17 20 11.3 32c-5.3 11.2-18.2 16.4-29.7 12.3V200c0 27.2-19.4 49.9-45.2 55l34.8 209H488c13.3 0 24 10.7 24 24s-10.7 24-24 24H24c-13.3 0-24-10.7-24-24s10.7-24 24-24h82.3l34.8-209c-25.7-5-45.2-27.7-45.2-55V126.6c-11.4 4.1-24.3-1.1-29.7-12.3c-5.7-12-.6-26.3 11.4-32l168-80zM256 50.6L144 103.9V128H368V103.9L256 50.6zM144 176v24c0 4.4 3.6 8 8 8H360c4.4 0 8-3.6 8-8V176H144zM330.8 464L256 400.7 181.2 464H330.8zM189.7 256l-3.7 22.5L256 337.8l70.1-59.3L322.3 256H189.7zm-12.9 77.6l-13.8 83 55.9-47.3-42.1-35.6zm116.4 35.6l55.9 47.3-13.8-83-42.1 35.6z"/></svg>
